icon-themes/sifr_svg/cmd/lc_mailmergecreatedocuments.svg

<svg viewBox="0 0 24 24" xmlns="http://www.w3.org/2000/svg"><path d="m3 2v17h3v3h3v-2h-1v-13h11v2.4023438l1.087891-1.1035157.388671-.3945312.523438.1152343v-3.0195312h-3v-3zm2 2h11v1h-10v12h-1zm15.800781 5-1.601562 1.623047c1.06699 1.064389 2.134439 2.129883 3.201172 3.195312l1.599609-1.61914c0-.194988.003499-.413235-.050781-.625-.03627-.176779-.135059-.33519-.199219-.5-.388758-.998646-1.227971-1.776926-2.300781-1.996094-.215441-.039035-.456119-.035781-.648438-.078125zm-3.201172 3.199219-7.599609 7.601562v3.199219h3.199219l7.601562-7.599609z" fill="#555753"/></svg>

<svg xmlns="http://www.w3.org/2000/svg" viewBox="0 0 24 24">
  <path
     style="fill:#555753"
     d="M 3 2 L 3 19 L 6 19 L 6 22 L 9 22 L 9 20 L 8 20 L 8 7 L 19 7 L 19 9.4023438 L 20.087891 8.2988281 L 20.476562 7.9042969 L 21 8.0195312 L 21 5 L 18 5 L 18 2 L 3 2 z M 5 4 L 16 4 L 16 5 L 6 5 L 6 17 L 5 17 L 5 4 z M 20.800781 9 L 19.199219 10.623047 C 20.266209 11.687436 21.333658 12.75293 22.400391 13.818359 L 24 12.199219 C 24 12.004231 24.003499 11.785984 23.949219 11.574219 C 23.912949 11.39744 23.81416 11.239029 23.75 11.074219 C 23.361242 10.075573 22.522029 9.297293 21.449219 9.078125 C 21.233778 9.03909 20.9931 9.042344 20.800781 9 z M 17.599609 12.199219 L 10 19.800781 L 10 23 L 13.199219 23 L 20.800781 15.400391 L 17.599609 12.199219 z "
     />
</svg>
